icons/svg/icons8/western.svg

<svg width="26" height="26" viewBox="0 0 26 26" fill="none" xmlns="http://www.w3.org/2000/svg">
<path d="M23.0871 26H2.91309C2.91309 26 6.27509 24.403 13.0001 24.403C19.7251 24.403 23.0871 26 23.0871 26Z" fill="#333333"/>
<path d="M12.9998 0.141006C11.3428 0.141006 10.2498 0.577006 9.96885 2.31301C9.96885 2.31301 8.52985 13.826 9.99985 24.179C10.1768 26.357 11.3428 25 12.9998 25C14.6568 25 15.6038 26.862 15.9998 24.473C17.7058 14.178 15.9688 2.31301 15.9688 2.31301C15.5158 0.279006 14.6568 0.141006 12.9998 0.141006Z" fill="#333333"/>
<path d="M20.6868 3.262C19.5888 3.146 19.7708 3.872 19.3658 5.132L18.6648 8.074C18.4378 8.756 18.1808 9.028 17.2878 8.933L13.6568 8.545C12.5568 8.428 11.5728 9.224 11.4558 10.321C11.3388 11.42 12.1338 12.405 13.2328 12.522L17.5258 12.98C19.5508 13.196 21.2908 12.392 21.6178 9.325C21.6178 9.325 22.0068 6.119 21.8328 4.862C21.6708 3.712 21.6038 3.36 20.6868 3.262Z" fill="#333333"/>
<path d="M4.95119 5.97301C6.05219 5.88301 5.85219 6.60401 6.22719 7.87501L7.07819 12.158C7.28819 12.844 7.53919 13.123 8.43319 13.049L12.0742 12.751C13.1752 12.66 14.1402 13.48 14.2302 14.58C14.3212 15.682 13.5012 16.646 12.4012 16.737L8.09819 17.09C6.06819 17.256 4.34719 16.41 4.09519 13.336C4.09519 13.336 3.56319 8.79701 3.76819 7.54601C3.95619 6.39601 4.03119 6.04801 4.95119 5.97301Z" fill="#333333"/>
</svg>

<?xml version="1.0" encoding="utf-8"?>
<!-- Generator: Adobe Illustrator 15.0.0, SVG Export Plug-In . SVG Version: 6.00 Build 0)  -->
<!DOCTYPE svg PUBLIC "-//W3C//DTD SVG 1.1//EN" "http://www.w3.org/Graphics/SVG/1.1/DTD/svg11.dtd">
<svg version="1.1" id="Layer_1" xmlns="http://www.w3.org/2000/svg" xmlns:xlink="http://www.w3.org/1999/xlink" x="0px" y="0px"
	 width="26px" height="26px" viewBox="0 0 26 26" enable-background="new 0 0 26 26" xml:space="preserve">
<path fill="#333333" d="M23.087,26H2.913c0,0,3.362-1.597,10.087-1.597S23.087,26,23.087,26z"/>
<rect fill="none" width="26" height="26"/>
<path fill="#333333" d="M13,0.141c-1.657,0-2.75,0.436-3.031,2.172c0,0-1.439,11.513,0.031,21.866C10.177,26.357,11.343,25,13,25
	s2.604,1.862,3-0.527c1.706-10.295-0.031-22.16-0.031-22.16C15.516,0.279,14.657,0.141,13,0.141z"/>
<path fill="#333333" d="M20.687,3.262c-1.098-0.116-0.916,0.61-1.321,1.87l-0.701,2.942c-0.227,0.682-0.484,0.954-1.377,0.859
	l-3.631-0.388c-1.1-0.117-2.084,0.679-2.201,1.776c-0.117,1.099,0.678,2.084,1.777,2.201l4.293,0.458
	c2.025,0.216,3.765-0.588,4.092-3.655c0,0,0.389-3.206,0.215-4.463C21.671,3.712,21.604,3.36,20.687,3.262z"/>
<path fill="#333333" d="M4.951,5.973c1.101-0.09,0.901,0.631,1.276,1.902l0.851,4.283c0.21,0.686,0.461,0.965,1.355,0.891
	l3.641-0.298c1.101-0.091,2.066,0.729,2.156,1.829c0.091,1.102-0.729,2.066-1.829,2.157L8.098,17.09
	c-2.03,0.166-3.751-0.68-4.003-3.754c0,0-0.532-4.539-0.327-5.79C3.956,6.396,4.031,6.048,4.951,5.973z"/>
</svg>
